image/footer-icons/lock.svg

<svg width="30" height="30" viewBox="0 0 30 30" fill="none" xmlns="http://www.w3.org/2000/svg">
<path fill-rule="evenodd" clip-rule="evenodd" d="M0 15C0 6.71575 6.71575 0 15 0C23.2842 0 30 6.71575 30 15C30 23.2843 23.2842 30 15 30C6.71575 30 0 23.2843 0 15ZM26.7389 15C26.7389 8.5174 21.4842 3.25928 15 3.25928C8.51575 3.25928 3.26113 8.5174 3.2611 15C3.2611 21.4826 8.51575 26.7389 15 26.7389C21.4842 26.7389 26.7389 21.4826 26.7389 15ZM19.3403 10.7001V13.0401C20.2703 13.0401 21.2003 13.9761 21.2003 15.0681V20.5281C21.2003 21.4641 20.2703 22.4001 19.1853 22.4001H10.6603C9.73029 22.4001 8.80029 21.4641 8.80029 20.3721V14.9121C8.80029 13.9761 9.73029 13.0401 10.6603 13.0401V10.7001C10.6603 8.51609 12.8303 6.80009 15.0003 6.80009C17.1703 6.80009 19.3403 8.51609 19.3403 10.7001ZM12.6753 13.0401H17.3253V10.7001C17.3253 9.45209 16.2403 8.67209 15.0003 8.67209C13.7603 8.67209 12.6753 9.45209 12.6753 10.7001V13.0401Z" fill="white"/>
</svg>

<svg fill="none" height="30" width="30" xmlns="http://www.w3.org/2000/svg"><path clip-rule="evenodd" d="M0 15C0 6.716 6.716 0 15 0c8.284 0 15 6.716 15 15 0 8.284-6.716 15-15 15-8.284 0-15-6.716-15-15zm26.739 0c0-6.483-5.255-11.74-11.739-11.74C8.516 3.26 3.261 8.516 3.261 15c0 6.483 5.255 11.739 11.739 11.739 6.484 0 11.739-5.256 11.739-11.739zm-7.399-4.3v2.34c.93 0 1.86.936 1.86 2.028v5.46c0 .936-.93 1.872-2.015 1.872H10.66c-.93 0-1.86-.936-1.86-2.028v-5.46c0-.936.93-1.872 1.86-1.872V10.7c0-2.184 2.17-3.9 4.34-3.9s4.34 1.716 4.34 3.9zm-6.665 2.34h4.65V10.7c0-1.248-1.085-2.028-2.325-2.028s-2.325.78-2.325 2.028z" fill="#fff" fill-rule="evenodd"/></svg>
